X:37
T:Rally Round the Flag
M:4/4
Q:1/4=100
L:1/8
U:T=!tenuto!
K:D
%%MIDI channel 1
%%MIDI program 72
%%MIDI transpose 8
%%MIDI grace 1/8
%%MIDI ratio 3 1
Ld>e|.f.f Lf>e d2 LB>c|dd Ld>c TB4|LA2 LA>G .F.A .d.e|(f4 e2) Ld>e|.f.f Lf>e d2 LB>c|
dd d>c TB4|LA2 A>G .F.A .d.f|(e4 d2) zLa||La2 f>g La Lb2 La|Ta2 f>g Ta4|a<a f>g a Lb2 a|
Ta2 Tf>d Te2 Ld>e|.f.f Lf>e Td2 LB>c|dd Ld>c B4|A2 A>G LFLA LdLf|[1 (e4 d)zz La:|[2 (e4 d) z|]

